X: 4404
M: 2/4
L: 1/8
K: G
|:\
d>dd>d | dBGB | defg | (gf)f2 |\
c>cc>c | cAFA | cdef |[1 (ed)B2 :|[2 gz [gB]z H|:\
a2eg | fed2 | eB^cA | defg |
a2eg | fed2 | eB^cA |[1 defg :|[2 dd/d/ dd/"_D.C."d/ |]\
[K:=f][K:C]\
|:"^Trio."\
[1 ABce | dBGz :|[2 AdBG | ccc |:\
e |\
eddc | Bd2B | Ad2A | Bd2e |\
eddc | Bd2B | Aed^F |[1 G3 :|[2 G=FE"_D.C."D !segno!|]


